packages/elvis-assets-icons/icons/svg/src/support.svg

<svg width="24" height="24" viewBox="0 0 24 24" fill="none" xmlns="http://www.w3.org/2000/svg">
<path d="M17.6386 23.999C17.2166 23.999 16.8741 23.663 16.8741 23.249V19.049C16.8741 18.782 17.0209 18.532 17.2573 18.399C19.2083 17.298 20.6476 15.44 21.2062 13.301C21.7627 11.169 21.4396 8.952 20.2969 7.059C19.3327 5.462 17.8587 4.24 16.1086 3.576V7.899C17.083 8.754 17.6375 9.966 17.6375 11.25C17.6375 13.731 15.5795 15.75 13.0506 15.75C12.861 15.75 12.6704 15.738 12.4757 15.712C10.9325 18.055 8.2476 19.5 5.40574 19.5H3.87677C3.45477 19.5 3.11228 19.164 3.11228 18.75C3.11228 18.336 3.45579 18 3.87677 18H5.40574C7.60849 18 9.64814 16.978 10.9467 15.245C9.42389 14.476 8.46369 12.954 8.46369 11.25C8.46369 9.965 9.0182 8.754 9.99267 7.899V3.427C6.77163 4.401 4.64228 6.897 4.64228 9.761V10.511C4.64228 10.659 4.59845 10.803 4.51384 10.927L2.65869 13.656C2.60976 13.728 2.57408 13.806 2.5537 13.89C2.50375 14.084 2.53433 14.286 2.63932 14.458C2.74431 14.63 2.91148 14.751 3.10922 14.8L4.0633 15.034C4.26105 15.082 4.42822 15.204 4.53321 15.375C4.6382 15.547 4.66878 15.749 4.61883 15.943C4.53423 16.277 4.22945 16.511 3.87779 16.511C3.81561 16.511 3.75343 16.503 3.69329 16.489L2.73819 16.255C2.14393 16.109 1.64243 15.745 1.32746 15.229C1.01249 14.713 0.920751 14.109 1.06957 13.526C1.13379 13.275 1.2398 13.039 1.38556 12.824L3.11228 10.284V9.761C3.11228 6.126 5.9256 2.917 9.99165 1.867V1.5C9.99165 0.673 10.6776 0 11.5206 0H14.5786C15.4215 0 16.1075 0.673 16.1075 1.5V1.988C18.4224 2.715 20.3683 4.236 21.6108 6.295C22.9614 8.533 23.3437 11.154 22.6852 13.674C22.0644 16.05 20.509 18.152 18.401 19.472V23.25C18.403 23.663 18.0606 23.999 17.6386 23.999ZM13.0506 10.5C13.4726 10.5 13.8151 10.836 13.8151 11.25C13.8151 12.286 13.6225 13.291 13.2412 14.244C14.8395 14.147 16.1086 12.841 16.1086 11.25C16.1086 9.596 14.7366 8.25 13.0506 8.25C11.3647 8.25 9.99267 9.596 9.99267 11.25C9.99267 12.401 10.6715 13.445 11.7133 13.943C12.0935 13.092 12.2861 12.188 12.2861 11.25C12.2861 10.836 12.6296 10.5 13.0506 10.5ZM13.0506 6.75C13.5766 6.75 14.0893 6.837 14.5796 7.01V1.5H11.5216V7.01C12.0119 6.837 12.5247 6.75 13.0506 6.75Z" fill="black"/>
<path d="M8.46471 24C8.04271 24 7.70022 23.664 7.70022 23.25V21.896L7.56363 21.918C7.35467 21.953 7.14062 21.971 6.92962 21.971C6.61159 21.971 6.29153 21.931 5.97962 21.852C5.57189 21.748 5.32521 21.338 5.43122 20.938C5.51888 20.607 5.82366 20.376 6.17125 20.376C6.23546 20.376 6.29968 20.384 6.36186 20.4C6.54839 20.447 6.73901 20.472 6.92962 20.472C7.05601 20.472 7.18445 20.461 7.31084 20.44L8.34035 20.273C8.38113 20.266 8.42394 20.263 8.46675 20.263C8.64717 20.263 8.82249 20.326 8.9601 20.441C9.13134 20.584 9.23022 20.793 9.23022 21.013V23.252C9.2292 23.664 8.88671 24 8.46471 24Z" fill="black"/>
</svg>

<svg width="24" height="24" fill="none" xmlns="http://www.w3.org/2000/svg"><path d="M17.639 23.999a.758.758 0 01-.765-.75v-4.2a.75.75 0 01.383-.65c1.951-1.101 3.39-2.959 3.95-5.098a8.051 8.051 0 00-.91-6.242 8.337 8.337 0 00-4.188-3.483v4.323a4.448 4.448 0 011.528 3.351c0 2.481-2.058 4.5-4.586 4.5-.19 0-.38-.012-.575-.038-1.544 2.343-4.228 3.788-7.07 3.788h-1.53a.758.758 0 01-.764-.75c0-.414.344-.75.765-.75h1.529a6.898 6.898 0 005.54-2.755c-1.522-.769-2.482-2.291-2.482-3.995 0-1.285.554-2.496 1.529-3.351V3.427c-3.221.974-5.35 3.47-5.35 6.334v.75a.735.735 0 01-.13.416L2.66 13.656a.732.732 0 00-.02.802.76.76 0 00.47.342l.954.234c.198.048.365.17.47.341a.732.732 0 01.086.568.76.76 0 01-.926.546l-.955-.234a2.275 2.275 0 01-1.41-1.026 2.198 2.198 0 01-.258-1.703c.064-.251.17-.487.316-.702l1.726-2.54v-.523c0-3.635 2.814-6.844 6.88-7.894V1.5c0-.827.686-1.5 1.529-1.5h3.058c.842 0 1.529.673 1.529 1.5v.488a9.841 9.841 0 015.503 4.307 9.516 9.516 0 011.074 7.379c-.62 2.376-2.176 4.478-4.284 5.798v3.778a.754.754 0 01-.762.749zM13.05 10.5c.422 0 .764.336.764.75a8.014 8.014 0 01-.574 2.994c1.598-.097 2.868-1.403 2.868-2.994 0-1.654-1.372-3-3.058-3-1.686 0-3.058 1.346-3.058 3a3 3 0 001.72 2.693c.38-.851.573-1.755.573-2.693 0-.414.344-.75.765-.75zm0-3.75c.526 0 1.038.087 1.529.26V1.5h-3.058v5.51a4.575 4.575 0 011.529-.26z" fill="#000"/><path d="M8.465 24a.758.758 0 01-.765-.75v-1.354l-.136.022a3.856 3.856 0 01-1.584-.066.75.75 0 01-.549-.914.763.763 0 01.93-.538 2.325 2.325 0 00.95.04l1.03-.167a.77.77 0 01.62.168c.17.143.27.352.27.572v2.239a.759.759 0 01-.766.748z" fill="#000"/></svg>
